X: 174
T:DEAUVERGNE
M:4/4
L:1/8
Q:1/4=60
Z:Yves BELOTTEAU
K:G
|BB/2B/2BB AAG2|FGAA GABG|BB/2B/2BB AAG2|FGAc BAG2|
DEAF DFA2|DFAc BABG|DEAF DFA2|DFAc BAG2|
W:
W: From "Falaleiro" http://home.t-online.de/home/pheld/homepage.htm

